icons/svg/16x16/company/filled.svg

<svg xmlns="http://www.w3.org/2000/svg" width="16" height="16" viewBox="0 0 16 16">
  <path fill-rule="evenodd" d="M4,4 L12,4 L12,3 L4,3 L4,4 Z M4,7 L12,7 L12,6.035 L4,6.035 L4,7 Z M6.035,13.035 L10.035,13.035 L10.035,10.035 L6.035,10.035 L6.035,13.035 Z M15,13 L14,13 L14,2 C14,1.447 13.553,1 13,1 L3,1 C2.447,1 2,1.447 2,2 L2,13 L1,13 C0.447,13 0,13.447 0,14 C0,14.553 0.447,15 1,15 L15,15 C15.553,15 16,14.553 16,14 C16,13.447 15.553,13 15,13 L15,13 Z"/>
</svg>

<svg width="16" height="16" fill="none" xmlns="http://www.w3.org/2000/svg">
  <path fill-rule="evenodd" clip-rule="evenodd" d="M4 4h8V3H4v1zm0 3h8v-.965H4V7zm2.035 6.035h4v-3h-4v3zM15 13h-1V2a1 1 0 00-1-1H3a1 1 0 00-1 1v11H1a1 1 0 100 2h14a1 1 0 100-2z" fill="#000"/>
</svg>
